apps/web/src/images/integrations/logo-duo-color.svg

<svg width="600" height="600" fill="none" xmlns="http://www.w3.org/2000/svg"><g clip-path="url(#a)"><path d="M96.958 396.5H.195v-91.924H193.6c-2.521 51.193-44.824 91.924-96.641 91.924Z" fill="#7BCD54"/><path d="M96.957 202.977H.195V294.9H193.6c-2.521-51.192-44.824-91.923-96.641-91.923ZM503.356 202.977c-51.817 0-94.121 40.731-96.641 91.923h193.282c-2.52-51.192-44.823-91.923-96.641-91.923Z" fill="#63C43F"/><path d="M503.356 396.5c-51.817 0-94.121-40.731-96.641-91.924h193.282c-2.52 51.193-44.823 91.924-96.641 91.924Z" fill="#7BCD54"/><path d="M203.395 202.977v96.762c0 51.817 40.731 94.12 91.924 96.641V202.977h-91.924Z" fill="#63C43F"/><path d="M396.922 396.501h-91.926V202.977h91.926v193.524Z" fill="#7BCD54"/></g><defs><clipPath id="a"><path fill="#fff" transform="translate(0 203)" d="M0 0h600v193.5H0z"/></clipPath></defs></svg>

<svg width="600" height="600" viewBox="0 0 600 600" fill="none" xmlns="http://www.w3.org/2000/svg">
<g clip-path="url(#clip0_8112_4795)">
<path d="M96.9577 396.5H0.195312V304.576H193.599C191.078 355.769 148.775 396.5 96.9577 396.5Z" fill="#7BCD54"/>
<path d="M96.9575 202.977H0.195312V294.9H193.599C191.078 243.708 148.775 202.977 96.9575 202.977Z" fill="#63C43F"/>
<path d="M503.356 202.977C451.539 202.977 409.235 243.708 406.715 294.9H599.997C597.477 243.708 555.174 202.977 503.356 202.977Z" fill="#63C43F"/>
<path d="M503.356 396.5C451.539 396.5 409.235 355.769 406.715 304.576H599.997C597.477 355.769 555.174 396.5 503.356 396.5Z" fill="#7BCD54"/>
<path d="M203.395 202.977V299.739C203.395 351.556 244.126 393.859 295.319 396.38V202.977H203.395Z" fill="#63C43F"/>
<path d="M396.922 396.501H304.996V202.977H396.922V299.739V396.501Z" fill="#7BCD54"/>
</g>
<defs>
<clipPath id="clip0_8112_4795">
<rect width="600" height="193.5" fill="white" transform="translate(0 203)"/>
</clipPath>
</defs>
</svg>
